X: 7501
T: Coast Of Austria, The
R: reel
M: 4/4
K: Amajor
B|:ce ~e2 fece|~f3a eAcA|ce ~e2 fece|faag a2 ab|
"See Var #1" c'bac' bafa|~f3e f2 af|"See Var #2" eAce ~f3 a|ecBc A2 AB:|
|:c2 Bc AF ~F2|EcEF A2 AB|ce ~e2 fece|faag a2 ab|
c'bac' bafa|~f3e f2 af|eAce ~f3 a|ecBc A2 AB:|
"Var #1" c'2 c'2 bafa||"Var #2" eAcef2 f2||

